X:456
T: ICH WUENSCHT ES WAERE NACHT
N: F0858
O: Europa, Mitteleuropa, Deutschland, Schlesien
R: erzaehlendes Volks - Lied, Liebe
M: 3/4
L: 1/8
K: Bb
F2 | B2D2FF | B4
dB | c3dec | d4z2 |
cdc2F2 | B3cd2 |
cdc2F2 | B3cd2 |
ecd2c2 | B4z2

@@@ Tune index: 5887
